; generated by Slic3r 0.9.10 on 2014-02-04 at 19:23:33

; layer_height = 0.15
; perimeters = 2
; top_solid_layers = 6
; bottom_solid_layers = 5
; fill_density = 0.4
; perimeter_speed = 100
; infill_speed = 120
; travel_speed = 130
; nozzle_diameter = 0.5
; filament_diameter = 2.85
; extrusion_multiplier = 1
; perimeters extrusion width = 0.85mm
; infill extrusion width = 1.34mm
; solid infill extrusion width = 0.85mm
; top infill extrusion width = 0.85mm
; first layer extrusion width = 0.60mm

G21 ; set units to millimeters
M107
M190 S90 ; wait for bed temperature to be reached
M104 S195 ; set temperature
G28
M109 S195 ; wait for temperature to be reached
G90 ; use absolute coordinates
G92 E0
M82 ; use absolute distances for extrusion
G1 F4200.000 E-0.70000
G92 E0
G1 Z0.300 F7800.000
G1 X87.800 Y83.350
G1 F4200.000 E0.70000
G1 X88.600 Y82.550 F600.000 E0.73078
G1 X89.560 Y81.950 E0.76158
G1 X90.630 Y81.580 E0.79238
G1 X91.750 Y81.450 E0.82306
G1 X108.250 Y81.450 E1.27197
G1 X109.370 Y81.580 E1.30264
G1 X110.440 Y81.950 E1.33345
G1 X111.400 Y82.550 E1.36425
G1 X112.200 Y83.350 E1.39503
G1 X112.800 Y84.310 E1.42583
G1 X113.170 Y85.380 E1.45663
G1 X113.300 Y86.500 E1.48731
G1 X113.300 Y113.500 E2.22189
G1 X113.170 Y114.620 E2.25256
G1 X112.800 Y115.690 E2.28336
G1 X112.200 Y116.650 E2.31416
G1 X111.400 Y117.450 E2.34495
G1 X110.440 Y118.050 E2.37575
G1 X109.370 Y118.420 E2.40655
G1 X108.250 Y118.550 E2.43722
G1 X91.750 Y118.550 E2.88613
G1 X90.630 Y118.420 E2.91681
G1 X89.560 Y118.050 E2.94761
G1 X88.600 Y117.450 E2.97841
G1 X87.800 Y116.650 E3.00919
G1 X87.200 Y115.690 E3.03999
G1 X86.830 Y114.620 E3.07079
G1 X86.700 Y113.500 E3.10147
G1 X86.700 Y86.500 E3.83605
G1 X86.830 Y85.380 E3.86673
G1 X87.200 Y84.310 E3.89753
G1 X87.754 Y83.424 E3.92597
G1 X88.590 Y83.340 F7800.000
G1 X89.510 Y82.630 F600.000 E3.95758
G1 X90.590 Y82.180 E3.98942
G1 X91.750 Y82.030 E4.02124
G1 X108.250 Y82.030 E4.47015
G1 X109.410 Y82.180 E4.50197
G1 X110.490 Y82.630 E4.53380
G1 X111.410 Y83.340 E4.56542
G1 X112.120 Y84.260 E4.59704
G1 X112.570 Y85.340 E4.62887
G1 X112.720 Y86.500 E4.66069
G1 X112.720 Y113.500 E5.39527
G1 X112.570 Y114.660 E5.42709
G1 X112.120 Y115.740 E5.45892
G1 X111.410 Y116.660 E5.49054
G1 X110.490 Y117.370 E5.52216
G1 X109.410 Y117.820 E5.55399
G1 X108.250 Y117.970 E5.58581
G1 X91.750 Y117.970 E6.03472
G1 X90.590 Y117.820 E6.06655
G1 X89.510 Y117.370 E6.09838
G1 X88.590 Y116.660 E6.12999
G1 X87.880 Y115.740 E6.16161
G1 X87.430 Y114.660 E6.19344
G1 X87.280 Y113.500 E6.22527
G1 X87.280 Y86.500 E6.95984
G1 X87.430 Y85.340 E6.99167
G1 X87.880 Y84.260 E7.02350
G1 X88.537 Y83.409 E7.05275
G1 X89.000 Y83.750 F7800.000
G1 X89.800 Y83.130 F600.000 E7.08029
G1 X90.740 Y82.740 E7.10798
G1 X91.750 Y82.610 E7.13568
G1 X108.250 Y82.610 E7.58459
G1 X109.260 Y82.740 E7.61230
G1 X110.200 Y83.130 E7.63999
G1 X111.000 Y83.750 E7.66752
G1 X111.620 Y84.550 E7.69506
G1 X112.010 Y85.490 E7.72275
G1 X112.140 Y86.500 E7.75045
G1 X112.140 Y113.500 E8.48503
G1 X112.010 Y114.510 E8.51274
G1 X111.620 Y115.450 E8.54043
G1 X111.000 Y116.250 E8.56796
G1 X110.200 Y116.870 E8.59550
G1 X109.260 Y117.260 E8.62319
G1 X108.250 Y117.390 E8.65089
G1 X91.750 Y117.390 E9.09980
G1 X90.740 Y117.260 E9.12751
G1 X89.800 Y116.870 E9.15520
G1 X89.000 Y116.250 E9.18273
G1 X88.380 Y115.450 E9.21027
G1 X87.990 Y114.510 E9.23796
G1 X87.860 Y113.500 E9.26566
G1 X87.860 Y86.500 E10.00024
G1 X87.990 Y85.490 E10.02795
G1 X88.380 Y84.550 E10.05564
G1 X88.947 Y83.819 E10.08081
G1 X89.070 Y84.550 F7800.000
G1 X89.800 Y83.820 F600.000 E10.10890
G1 X90.730 Y83.350 E10.13725
G1 X91.750 Y83.190 E10.16534
G1 X108.250 Y83.190 E10.61425
G1 X109.270 Y83.350 E10.64234
G1 X110.200 Y83.820 E10.67069
G1 X110.930 Y84.550 E10.69878
G1 X111.400 Y85.480 E10.72713
G1 X111.560 Y86.500 E10.75522
G1 X111.560 Y113.500 E11.48979
G1 X111.400 Y114.520 E11.51788
G1 X110.930 Y115.450 E11.54623
G1 X110.200 Y116.180 E11.57432
G1 X109.270 Y116.650 E11.60267
G1 X108.250 Y116.810 E11.63076
G1 X91.750 Y116.810 E12.07967
G1 X90.730 Y116.650 E12.10776
G1 X89.800 Y116.180 E12.13611
G1 X89.070 Y115.450 E12.16420
G1 X88.600 Y114.520 E12.19255
G1 X88.440 Y113.500 E12.22064
G1 X88.440 Y86.500 E12.95522
G1 X88.600 Y85.480 E12.98331
G1 X89.031 Y84.627 E13.00930
G1 X89.540 Y84.890 F7800.000
G1 X90.140 Y84.290 F600.000 E13.03238
G1 X90.900 Y83.900 E13.05562
G1 X91.750 Y83.760 E13.07906
G1 X108.250 Y83.760 E13.52797
G1 X109.100 Y83.900 E13.55141
G1 X109.860 Y84.290 E13.57465
G1 X110.460 Y84.890 E13.59773
G1 X110.850 Y85.650 E13.62097
G1 X110.990 Y86.500 E13.64441
G1 X110.990 Y113.500 E14.37899
G1 X110.850 Y114.350 E14.40243
G1 X110.460 Y115.110 E14.42567
G1 X109.860 Y115.710 E14.44875
G1 X109.100 Y116.100 E14.47199
G1 X108.250 Y116.240 E14.49543
G1 X91.750 Y116.240 E14.94434
G1 X90.900 Y116.100 E14.96778
G1 X90.140 Y115.710 E14.99102
G1 X89.540 Y115.110 E15.01410
G1 X89.150 Y114.350 E15.03734
G1 X89.010 Y113.500 E15.06078
G1 X89.010 Y86.500 E15.79536
G1 X89.150 Y85.650 E15.81880
G1 X89.500 Y84.967 E15.83968
G1 X90.220 Y84.970 F7800.000
G1 X90.920 Y84.510 F600.000 E15.86247
G1 X91.750 Y84.340 E15.88552
G1 X108.250 Y84.340 E16.33443
G1 X109.080 Y84.510 E16.35748
G1 X109.780 Y84.970 E16.38027
G1 X110.240 Y85.670 E16.40305
G1 X110.410 Y86.500 E16.42610
G1 X110.410 Y113.500 E17.16068
G1 X110.240 Y114.330 E17.18373
G1 X109.780 Y115.030 E17.20652
G1 X109.080 Y115.490 E17.22931
G1 X108.250 Y115.660 E17.25236
G1 X91.750 Y115.660 E17.70127
G1 X90.920 Y115.490 E17.72432
G1 X90.220 Y115.030 E17.74711
G1 X89.760 Y114.330 E17.76990
G1 X89.590 Y113.500 E17.79295
G1 X89.590 Y86.500 E18.52753
G1 X89.760 Y85.670 E18.55058
G1 X90.172 Y85.043 E18.57101
G1 X90.630 Y85.380 F7800.000
G1 X91.150 Y85.040 F600.000 E18.58791
G1 X91.750 Y84.920 E18.60456
G1 X108.250 Y84.920 E19.05347
G1 X108.850 Y85.040 E19.07011
G1 X109.370 Y85.380 E19.08702
G1 X109.710 Y85.900 E19.10392
G1 X109.830 Y86.500 E19.12057
G1 X109.830 Y113.500 E19.85515
G1 X109.710 Y114.100 E19.87179
G1 X109.370 Y114.620 E19.88870
G1 X108.850 Y114.960 E19.90560
G1 X108.250 Y115.080 E19.92225
G1 X91.750 Y115.080 E20.37116
G1 X91.150 Y114.960 E20.38780
G1 X90.630 Y114.620 E20.40471
G1 X90.290 Y114.100 E20.42161
G1 X90.170 Y113.500 E20.43826
G1 X90.170 Y86.500 E21.17284
G1 X90.290 Y85.900 E21.18948
G1 X90.583 Y85.453 E21.20403
G1 X91.150 Y85.040 F7800.000 E20.73176
G1 X91.482 Y84.974 E20.50403
G92 E0
G1 X84.847 Y80.560
G1 F4200.000 E0.70000
G1 X85.810 Y79.597 F600.000 E0.73706
G1 X86.162 Y79.300 E0.74959
G1 X87.519 Y78.438 E0.79334
G1 X88.124 Y78.150 E0.81156
G1 X89.423 Y77.702 E0.84893
G1 X90.036 Y77.562 E0.86606
G1 X91.340 Y77.410 E0.90177
G1 X91.691 Y77.389 E0.91134
G1 X106.637 Y77.389 E1.31795
G1 X106.775 Y77.280 E1.32276
G1 X106.997 Y77.217 E1.32902
G1 X108.485 Y77.389 E1.36979
G1 X109.983 Y77.389 E1.41055
G1 X110.196 Y77.478 E1.41681
G1 X110.359 Y77.641 E1.42309
G1 X110.592 Y77.706 E1.42969
G1 X112.072 Y78.230 E1.47239
G1 X112.495 Y78.446 E1.48530
G1 X113.650 Y79.168 E1.52237
G1 X114.018 Y79.444 E1.53489
G1 X115.153 Y80.560 E1.57819
G1 X115.459 Y80.926 E1.59117
G1 X116.312 Y82.269 E1.63447
G1 X116.600 Y82.874 E1.65270
G1 X117.044 Y84.158 E1.68963
G1 X117.153 Y84.585 E1.70164
G1 X117.350 Y86.207 E1.74609
G1 X117.357 Y113.668 E2.49320
G1 X117.191 Y115.198 E2.53509
G1 X117.104 Y115.631 E2.54709
G1 X116.600 Y117.126 E2.59001
G1 X116.414 Y117.544 E2.60248
G1 X115.582 Y118.900 E2.64575
G1 X115.306 Y119.268 E2.65828
G1 X114.190 Y120.403 E2.70158
G1 X113.824 Y120.709 E2.71456
G1 X112.481 Y121.562 E2.75786
G1 X111.876 Y121.850 E2.77609
G1 X110.592 Y122.294 E2.81302
G1 X110.165 Y122.403 E2.82503
G1 X108.552 Y122.600 E2.86925
G1 X91.574 Y122.607 E3.33115
G1 X90.052 Y122.441 E3.37281
G1 X89.619 Y122.354 E3.38481
G1 X88.124 Y121.850 E3.42773
G1 X87.706 Y121.664 E3.44020
G1 X86.350 Y120.832 E3.48347
G1 X85.982 Y120.556 E3.49600
G1 X84.847 Y119.440 E3.53930
G1 X84.541 Y119.074 E3.55228
G1 X83.688 Y117.731 E3.59558
G1 X83.400 Y117.126 E3.61380
G1 X82.956 Y115.842 E3.65074
G1 X82.847 Y115.415 E3.66275
G1 X82.650 Y113.793 E3.70719
G1 X82.639 Y86.441 E4.45135
G1 X82.660 Y86.090 E4.46092
G1 X82.847 Y84.585 E4.50218
G1 X82.956 Y84.158 E4.51419
G1 X83.400 Y82.874 E4.55113
G1 X83.586 Y82.456 E4.56359
G1 X83.696 Y82.255 E4.56981
G1 X84.427 Y81.086 E4.60732
G1 X84.789 Y80.625 E4.62328
G1 X85.257 Y80.970 F7800.000
G1 X86.208 Y80.018 F600.000 E4.65990
G1 X86.510 Y79.763 E4.67064
G1 X87.812 Y78.937 E4.71261
G1 X88.329 Y78.691 E4.72817
G1 X89.597 Y78.253 E4.76466
G1 X90.119 Y78.134 E4.77923
G1 X91.399 Y77.985 E4.81429
G1 X91.700 Y77.968 E4.82249
G1 X106.838 Y77.968 E5.23435
G1 X106.947 Y77.882 E5.23812
G1 X107.168 Y77.819 E5.24438
G1 X108.451 Y77.968 E5.27954
G1 X109.743 Y77.968 E5.31469
G1 X109.956 Y78.056 E5.32095
G1 X110.068 Y78.168 E5.32525
G1 X110.418 Y78.258 E5.33509
G1 X111.837 Y78.759 E5.37604
G1 X112.202 Y78.945 E5.38717
G1 X113.329 Y79.650 E5.42335
G1 X113.645 Y79.887 E5.43409
G1 X114.732 Y80.958 E5.47561
G1 X114.996 Y81.273 E5.48679
G1 X115.805 Y82.548 E5.52787
G1 X116.059 Y83.079 E5.54388
G1 X116.492 Y84.332 E5.57995
G1 X116.586 Y84.698 E5.59024
G1 X116.779 Y86.349 E5.63546
G1 X116.779 Y113.642 E6.37802
G1 X116.618 Y115.116 E6.41834
G1 X116.544 Y115.487 E6.42864
G1 X116.059 Y116.921 E6.46983
G1 X115.899 Y117.280 E6.48052
G1 X115.100 Y118.579 E6.52202
G1 X114.863 Y118.895 E6.53276
G1 X113.792 Y119.982 E6.57428
G1 X113.477 Y120.246 E6.58547
G1 X112.202 Y121.055 E6.62655
G1 X111.671 Y121.309 E6.64255
G1 X110.418 Y121.742 E6.67862
G1 X110.052 Y121.836 E6.68891
G1 X108.510 Y122.023 E6.73117
G1 X91.599 Y122.029 E7.19125
G1 X90.134 Y121.868 E7.23135
G1 X89.763 Y121.794 E7.24164
G1 X88.329 Y121.309 E7.28283
G1 X87.970 Y121.149 E7.29352
G1 X86.671 Y120.350 E7.33502
G1 X86.355 Y120.113 E7.34576
G1 X85.268 Y119.042 E7.38728
G1 X85.004 Y118.727 E7.39847
G1 X84.195 Y117.452 E7.43955
G1 X83.941 Y116.921 E7.45555
G1 X83.508 Y115.668 E7.49162
G1 X83.414 Y115.302 E7.50191
G1 X83.221 Y113.651 E7.54714
G1 X83.218 Y86.450 E8.28719
G1 X83.235 Y86.149 E8.29539
G1 X83.414 Y84.698 E8.33515
G1 X83.508 Y84.332 E8.34544
G1 X83.941 Y83.079 E8.38151
G1 X84.195 Y82.548 E8.39751
G1 X84.900 Y81.421 E8.43369
G1 X85.199 Y81.035 E8.44697
G1 X85.590 Y81.465 F7800.000
G1 X86.728 Y80.329 F600.000 E8.49072
G1 X86.991 Y80.132 E8.49967
G1 X88.091 Y79.444 E8.53496
G1 X88.533 Y79.233 E8.54830
G1 X89.771 Y78.805 E8.58393
G1 X90.217 Y78.705 E8.59635
G1 X91.700 Y78.547 E8.63693
G1 X107.039 Y78.547 E9.05427
G1 X107.118 Y78.484 E9.05700
G1 X107.339 Y78.421 E9.06326
G1 X108.418 Y78.547 E9.09280
G1 X109.504 Y78.547 E9.12235
G1 X109.716 Y78.635 E9.12861
G1 X109.787 Y78.706 E9.13134
G1 X110.244 Y78.810 E9.14408
G1 X111.618 Y79.295 E9.18371
G1 X111.909 Y79.444 E9.19262
G1 X113.009 Y80.132 E9.22791
G1 X113.272 Y80.329 E9.23687
G1 X114.311 Y81.355 E9.27660
G1 X114.533 Y81.620 E9.28600
G1 X115.306 Y82.841 E9.32530
G1 X115.517 Y83.283 E9.33864
G1 X115.940 Y84.506 E9.37384
G1 X116.018 Y84.812 E9.38242
G1 X116.201 Y86.374 E9.42523
G1 X116.201 Y113.617 E10.16642
G1 X116.045 Y115.033 E10.20518
G1 X115.983 Y115.343 E10.21377
G1 X115.517 Y116.717 E10.25323
G1 X115.384 Y117.016 E10.26214
G1 X114.618 Y118.259 E10.30187
G1 X114.421 Y118.522 E10.31082
G1 X113.395 Y119.561 E10.35056
G1 X113.130 Y119.783 E10.35996
G1 X111.909 Y120.556 E10.39926
G1 X111.467 Y120.767 E10.41260
G1 X110.244 Y121.190 E10.44779
G1 X109.938 Y121.268 E10.45638
G1 X108.468 Y121.446 E10.49667
G1 X91.624 Y121.451 E10.95493
G1 X90.217 Y121.295 E10.99347
G1 X89.907 Y121.233 E11.00205
G1 X88.533 Y120.767 E11.04152
G1 X88.234 Y120.634 E11.05043
G1 X86.991 Y119.868 E11.09015
G1 X86.728 Y119.671 E11.09911
G1 X85.689 Y118.645 E11.13884
G1 X85.467 Y118.380 E11.14824
G1 X84.694 Y117.159 E11.18754
G1 X84.483 Y116.717 E11.20088
G1 X84.060 Y115.494 E11.23608
G1 X83.982 Y115.188 E11.24466
G1 X83.799 Y113.626 E11.28747
G1 X83.797 Y86.458 E12.02661
G1 X83.811 Y86.207 E12.03345
G1 X83.982 Y84.812 E12.07170
G1 X84.060 Y84.506 E12.08028
G1 X84.483 Y83.283 E12.11548
G1 X84.694 Y82.841 E12.12882
G1 X85.382 Y81.741 E12.16410
G1 X85.535 Y81.533 E12.17115
G1 X86.022 Y81.851 F7800.000
G1 X87.101 Y80.772 F600.000 E12.21266
G1 X87.312 Y80.614 E12.21983
G1 X88.384 Y79.944 E12.25423
G1 X88.738 Y79.774 E12.26491
G1 X89.930 Y79.362 E12.29923
G1 X90.299 Y79.278 E12.30952
G1 X91.708 Y79.125 E12.34808
G1 X107.241 Y79.125 E12.77068
G1 X107.289 Y79.087 E12.77236
G1 X107.511 Y79.024 E12.77862
G1 X108.384 Y79.125 E12.80256
G1 X109.264 Y79.125 E12.82649
G1 X109.477 Y79.213 E12.83275
G1 X109.521 Y79.257 E12.83444
G1 X109.810 Y79.296 E12.84237
G1 X110.055 Y79.357 E12.84925
G1 X111.383 Y79.824 E12.88754
G1 X111.616 Y79.944 E12.89468
G1 X112.688 Y80.614 E12.92908
G1 X112.899 Y80.772 E12.93625
G1 X113.891 Y81.753 E12.97420
G1 X114.070 Y81.968 E12.98182
G1 X114.806 Y83.134 E13.01933
G1 X114.976 Y83.488 E13.03001
G1 X115.388 Y84.680 E13.06434
G1 X115.451 Y84.925 E13.07121
G1 X115.623 Y86.399 E13.11160
G1 X115.623 Y113.592 E13.85142
G1 X115.472 Y114.951 E13.88862
G1 X115.423 Y115.199 E13.89549
G1 X114.976 Y116.512 E13.93324
G1 X114.869 Y116.752 E13.94037
G1 X114.136 Y117.938 E13.97831
G1 X113.978 Y118.149 E13.98549
G1 X112.997 Y119.141 E14.02344
G1 X112.782 Y119.320 E14.03105
G1 X111.616 Y120.056 E14.06857
G1 X111.262 Y120.226 E14.07925
G1 X110.070 Y120.638 E14.11357
G1 X109.825 Y120.701 E14.12045
G1 X108.426 Y120.868 E14.15877
G1 X91.649 Y120.873 E14.61522
G1 X90.299 Y120.722 E14.65219
G1 X90.051 Y120.673 E14.65906
G1 X88.738 Y120.226 E14.69680
G1 X88.498 Y120.119 E14.70394
G1 X87.312 Y119.386 E14.74188
G1 X87.101 Y119.228 E14.74906
G1 X86.109 Y118.247 E14.78701
G1 X85.930 Y118.032 E14.79462
G1 X85.194 Y116.866 E14.83214
G1 X85.024 Y116.512 E14.84282
G1 X84.612 Y115.320 E14.87714
G1 X84.549 Y115.075 E14.88402
G1 X84.377 Y113.601 E14.92440
G1 X84.375 Y86.466 E15.66264
G1 X84.549 Y84.925 E15.70484
G1 X84.612 Y84.680 E15.71171
G1 X85.024 Y83.488 E15.74604
G1 X85.194 Y83.134 E15.75672
G1 X85.968 Y81.919 E15.79591
G1 X86.402 Y82.302 F7800.000
G1 X86.530 Y82.150 F600.000 E15.80130
G1 X87.474 Y81.214 E15.83747
G1 X87.632 Y81.096 E15.84285
G1 X88.676 Y80.443 E15.87636
G1 X88.942 Y80.316 E15.88438
G1 X90.104 Y79.914 E15.91783
G1 X90.381 Y79.851 E15.92555
G1 X91.725 Y79.704 E15.96232
G1 X107.442 Y79.704 E16.38994
G1 X107.682 Y79.626 E16.39680
G1 X108.351 Y79.704 E16.41512
G1 X109.025 Y79.704 E16.43345
G1 X109.254 Y79.808 E16.44031
G1 X109.634 Y79.853 E16.45073
G1 X109.881 Y79.909 E16.45760
G1 X111.148 Y80.353 E16.49414
G1 X111.324 Y80.443 E16.49950
G1 X112.368 Y81.096 E16.53301
G1 X112.526 Y81.214 E16.53839
G1 X113.470 Y82.150 E16.57456
G1 X113.608 Y82.315 E16.58039
G1 X114.307 Y83.426 E16.61613
G1 X114.434 Y83.692 E16.62415
G1 X114.836 Y84.854 E16.65760
G1 X114.883 Y85.038 E16.66276
G1 X115.045 Y86.424 E16.70073
G1 X115.045 Y113.567 E17.43919
G1 X114.899 Y114.869 E17.47483
G1 X114.862 Y115.055 E17.47999
G1 X114.434 Y116.308 E17.51600
G1 X114.354 Y116.488 E17.52136
G1 X113.654 Y117.618 E17.55753
G1 X113.536 Y117.776 E17.56292
G1 X112.600 Y118.720 E17.59908
G1 X112.435 Y118.858 E17.60492
G1 X111.324 Y119.557 E17.64065
G1 X111.058 Y119.684 E17.64867
G1 X109.896 Y120.086 E17.68212
G1 X109.712 Y120.133 E17.68728
G1 X108.376 Y120.292 E17.72387
G1 X91.674 Y120.295 E18.17827
G1 X90.381 Y120.149 E18.21368
G1 X90.195 Y120.112 E18.21884
G1 X88.942 Y119.684 E18.25486
G1 X88.762 Y119.604 E18.26022
G1 X87.632 Y118.904 E18.29638
G1 X87.474 Y118.786 E18.30177
G1 X86.530 Y117.850 E18.33794
G1 X86.392 Y117.685 E18.34377
G1 X85.693 Y116.574 E18.37950
G1 X85.566 Y116.308 E18.38752
G1 X85.164 Y115.146 E18.42097
G1 X85.117 Y114.962 E18.42614
G1 X84.954 Y113.525 E18.46547
G1 X84.955 Y86.424 E19.20279
G1 X85.101 Y85.131 E19.23820
G1 X85.164 Y84.854 E19.24592
G1 X85.566 Y83.692 E19.27937
G1 X85.646 Y83.512 E19.28473
G1 X86.352 Y82.372 E19.32122
G1 X86.837 Y82.689 F7800.000
G1 X86.951 Y82.548 F600.000 E19.32616
G1 X87.847 Y81.657 E19.36054
G1 X88.969 Y80.942 E19.39674
G1 X89.147 Y80.857 E19.40210
G1 X90.279 Y80.466 E19.43468
G1 X90.464 Y80.424 E19.43984
G1 X91.733 Y80.282 E19.47459
G1 X107.664 Y80.282 E19.90802
G1 X107.853 Y80.228 E19.91337
